X: 122
%%topmargin 3cm
T: Marquis of Lorne
B: Traditional Irish Fiddle Tunes. Randy Miller and Jack Perron.
S: Ed Pearlman workshop 2022-5-1
Z: Transcribed by John Chambers 2022-9-13
R: Reel
M: C|
L: 1/8
K: G
   ba | gfgd B2ed | cBcA E2AG | FGAB c2{e}dc | BABc d2 ||
|| ba | gfgd Bded | cBcA E2AG | FGAB cdef | g2{a}g2 {f}g2 :|
|: Bc | dgdB dgdB | dgdB d2cB | cafd c2AB | cafd c2 ||
|| Bc | dgdB dgdB | dgdB d2cB | ceag fdef | g2[g2B2] [g2B2] :|
